X: 47
T: Jackie Coleman's Reel
R: reel
Z: 2012 John Chambers <jc@trillian.mit.edu>
B: "100 Essential Irish Session Tunes" 1995 Dave Mallinson, ed.
M: 4/4
L: 1/8
K: D
B \
| "D"AF~F2 "A7"EFDE | "D"F2AF BFAF | "Em"E2BE dEBE | "A"ABde fedB |
| "D"AF~F2 "A7"EFDE | "D"F2AF BFAF | "Em"E2BE dEBE | "A"ABde "D"fd d :|
|: e \
| "D"fddc dfag | fdcd fagf | "A7"eA~A2 eAfA | eA~A2 efge |
| "D"fd~d2 dfag | "Bm"fd~d2 dfaf | "G"g2gf gbag | "A7"faeg "D"fd d :|

%%sep 2 1 500
%%sep 1 1 500

